symbols/web/directions_car/materialsymbolsrounded/directions_car_fill1_40px.svg

<svg xmlns="http://www.w3.org/2000/svg" height="40" width="40"><path d="M8.875 31.542v1.541q0 .834-.542 1.375Q7.792 35 6.958 35q-.833 0-1.396-.562Q5 33.875 5 33.042V20.167L8.542 9.708q.208-.625.75-1 .541-.375 1.208-.375h19q.667 0 1.208.375.542.375.75 1L35 20.167v12.916q0 .792-.562 1.355-.563.562-1.396.562-.792 0-1.375-.583-.584-.584-.584-1.375v-1.5Zm0-14.167h22.25l-2.083-6.25H10.958Zm3.25 9.458q.958 0 1.646-.687.687-.688.687-1.646 0-1-.687-1.688-.688-.687-1.646-.687-1 0-1.708.687-.709.688-.709 1.688t.709 1.667q.708.666 1.708.666Zm15.792 0q1 0 1.687-.687.688-.688.688-1.646 0-1-.688-1.688-.687-.687-1.687-.687t-1.667.687q-.667.688-.667 1.688t.688 1.667q.687.666 1.646.666Z"/></svg>

<svg xmlns="http://www.w3.org/2000/svg" height="40" width="40"><path d="M8.875 31.542V33.083Q8.875 33.917 8.333 34.458Q7.792 35 6.958 35Q6.125 35 5.562 34.438Q5 33.875 5 33.042V20.167L8.542 9.708Q8.75 9.083 9.292 8.708Q9.833 8.333 10.5 8.333H29.5Q30.167 8.333 30.708 8.708Q31.25 9.083 31.458 9.708L35 20.167V33.083Q35 33.875 34.438 34.438Q33.875 35 33.042 35Q32.25 35 31.667 34.417Q31.083 33.833 31.083 33.042V31.542ZM8.875 17.375H31.125L29.042 11.125H10.958ZM12.125 26.833Q13.083 26.833 13.771 26.146Q14.458 25.458 14.458 24.5Q14.458 23.5 13.771 22.812Q13.083 22.125 12.125 22.125Q11.125 22.125 10.417 22.812Q9.708 23.5 9.708 24.5Q9.708 25.5 10.417 26.167Q11.125 26.833 12.125 26.833ZM27.917 26.833Q28.917 26.833 29.604 26.146Q30.292 25.458 30.292 24.5Q30.292 23.5 29.604 22.812Q28.917 22.125 27.917 22.125Q26.917 22.125 26.25 22.812Q25.583 23.5 25.583 24.5Q25.583 25.5 26.271 26.167Q26.958 26.833 27.917 26.833Z"/></svg>
